logos/amp.svg

<?xml version="1.0" encoding="UTF-8"?>
<svg width="512px" height="164px" viewBox="0 0 512 164" version="1.1" xmlns="http://www.w3.org/2000/svg" xmlns:xlink="http://www.w3.org/1999/xlink" preserveAspectRatio="xMidYMid">
    <g>
        <path d="M81.778359,0 C127.12038,0.35698081 163.447272,35.4513603 163.603815,82.6350533 C163.746393,125.886499 128.41621,164.535403 79.7216255,163.586729 C35.3053526,162.721023 -0.97350457,126.54151 0.0199282655,79.3021407 C0.896550867,37.5790533 34.9374549,0.431215352 81.778359,0 Z M64.5493952,94.1730661 C67.4576426,94.1730661 70.3669816,94.1796162 73.2752289,94.169791 C74.6660349,94.1654243 75.5371991,94.4798294 75.2129688,96.2232495 C74.5000988,100.057245 73.9160477,103.914166 73.2894208,107.762354 C72.108946,115.016233 70.9324741,122.27084 69.760005,129.526175 C69.6475615,130.217211 69.286214,130.956281 70.1770285,131.433348 C71.6933782,132.244469 75.8395956,131.211736 76.6965679,129.780537 C87.5653782,111.643292 98.42873,93.5027719 109.286623,75.3589765 C111.542043,71.5850235 110.358657,69.5446652 105.93406,69.5119147 C100.843172,69.4755252 95.7522836,69.4755252 90.6613952,69.5119147 C89.0806362,69.5206482 88.0064187,69.3121365 88.3874165,67.2433945 C89.5227684,61.0895693 90.5598686,54.9182772 91.6002438,48.7469851 C92.4139126,43.9159176 93.1933753,39.0790277 93.9386319,34.2363156 C94.0499837,33.5136205 94.4899325,32.6195309 93.3130967,32.1904989 C90.7999889,31.4605767 88.0999737,32.3977901 86.5795871,34.5277953 C78.2187399,48.4518664 69.8644428,62.3799403 61.5166959,76.3120171 C58.9970882,80.5150021 56.4021543,84.6743198 54.0015402,88.9449893 C52.2024443,92.1436247 53.3836468,94.125032 56.9141543,94.1632409 C59.4588707,94.190533 62.0046788,94.1686994 64.5504869,94.1741578 L64.5493952,94.1730661 Z" fill="#1D5FE6"></path>
        <path d="M374.141276,98.0048785 C379.252542,84.6797783 384.189139,71.8372026 389.102811,58.9880768 C391.884423,51.7130917 394.661668,44.4359232 397.361404,37.1325544 C397.749615,35.6934652 399.149747,34.7695656 400.62554,34.978661 C408.264056,35.044162 415.903664,35.0638124 423.54218,34.9677441 C425.718999,34.9415437 426.2965,35.7428401 426.293225,37.8432409 C426.235001,66.9344478 426.235729,96.0256546 426.29543,125.116861 C426.299775,127.188878 425.649131,127.747821 423.641523,127.707429 C417.732235,127.587343 411.817489,127.552409 405.910385,127.719437 C403.515229,127.787122 402.804542,127.098269 402.820918,124.674729 C402.930086,108.766704 402.890785,92.8575864 402.892969,76.9484691 C402.93543,76.09152 402.736877,75.2398223 402.319834,74.4899957 C400.63864,79.2955906 398.944346,84.0968188 397.278436,88.9078721 C393.101651,100.968802 388.886657,113.017723 384.815766,125.11577 C384.107263,127.218354 383.052696,127.794763 380.927186,127.718345 C376.204559,127.546951 371.460099,127.471625 366.747297,127.742362 C364.191664,127.888648 363.294299,126.792597 362.568329,124.665996 C357.743084,110.537416 352.834871,96.4350362 347.946308,82.3271983 C347.041301,79.7147974 346.107911,77.1133134 345.151596,74.4092111 C344.18873,75.2716418 344.481301,76.2312324 344.481301,77.0947548 C344.483485,93.0038721 344.459468,108.912989 344.565361,124.821015 C344.580645,127.077527 343.971485,127.77948 341.677856,127.718345 C335.680141,127.560051 329.674785,127.613544 323.673796,127.698695 C321.987144,127.722712 321.25244,127.36464 321.255704,125.480392 C321.304477,96.2079659 321.305205,66.9351756 321.257898,37.6620213 C321.254623,35.6063795 322.059195,34.9677441 324.002393,34.981936 C331.640909,35.040887 339.280517,35.0528955 346.917941,34.9721109 C348.487715,34.7951606 349.945048,35.8104817 350.322905,37.3443412 C357.795849,56.6838948 365.307001,76.0085288 372.856363,95.3182431 C373.148935,96.0682303 373.549583,96.7756418 374.141276,98.0059701 L374.141276,98.0048785 Z M266.310146,35.0059531 C269.854845,35.0059531 273.405003,35.1085714 276.943152,34.9655608 C278.526058,34.765263 279.997935,35.81267 280.327374,37.3738166 C286.035428,53.0111045 291.764952,68.6403866 297.515945,84.2616631 C302.48966,97.7625245 307.515775,111.243736 312.500406,124.741322 C313.573532,127.645203 313.537506,127.66267 310.421839,127.663761 C304.059502,127.667036 297.692798,127.56551 291.333736,127.72162 C289.302112,127.770746 288.493173,127.042593 287.928773,125.218388 C286.673336,121.15623 285.116594,117.186866 283.867707,113.122525 C283.601798,111.557575 282.128537,110.496146 280.559903,110.739377 C270.833722,110.817979 261.107178,110.816887 251.380269,110.736102 C249.900341,110.542159 248.532423,111.554466 248.285344,113.026456 C246.938205,117.251275 245.428406,121.425876 244.04415,125.64087 C243.607476,126.96945 243.067092,127.731446 241.426291,127.707429 C234.700787,127.605538 227.974191,127.601899 221.246504,127.696512 C219.124269,127.722712 219.070777,127.003292 219.718146,125.269697 C224.870896,111.450064 229.949412,97.6031386 235.047579,83.7627633 C240.77128,68.2215437 246.518999,52.6890576 252.176107,37.1249126 C252.519949,35.6725511 253.929487,34.7342899 255.402035,34.9775693 C259.036252,35.0692708 262.673745,35.0059531 266.310146,35.0059531 L266.310146,35.0059531 Z M266.118009,93.0311642 C269.025165,93.0311642 271.934504,92.9689382 274.840568,93.0551812 C276.455169,93.1032154 276.99992,92.6992921 276.418052,91.0257399 C273.246709,81.8894328 270.137591,72.7323838 266.997907,63.5851599 C266.812321,63.0447761 267.032841,62.1212111 266.100542,62.1834371 C265.519766,62.2227377 265.399681,62.8897569 265.216278,63.4235906 C262.059127,72.6650633 258.882325,81.9003497 255.685873,91.1294499 C255.165139,92.6294243 255.602905,93.0857484 257.124713,93.0508145 C260.121387,92.9820384 263.120244,93.0300725 266.118009,93.0311642 L266.118009,93.0311642 Z M440.874854,81.2082217 C440.874854,66.6702601 440.925071,52.1312068 440.823227,37.5932452 C440.807169,35.2341151 441.418512,34.4437356 443.859519,34.4852196 C456.850564,34.7035565 469.8558,34.1293305 482.83702,34.8422004 C497.751613,35.6609638 509.86276,44.6226013 511.388935,61.0502687 C512.40966,72.0347974 509.756866,81.3730661 500.965532,88.4384478 C495.078078,93.1676247 488.023613,94.8248017 480.69186,95.2833092 C476.074035,95.5715139 471.421276,95.4612537 466.79035,95.3378934 C464.754359,95.2833092 463.995638,95.6828657 464.034939,97.9688529 C464.19105,106.962149 464.042581,115.959812 464.140832,124.9542 C464.163758,127.072068 463.576431,127.771838 461.382146,127.716162 C455.387343,127.56551 449.389628,127.566237 443.389003,127.718345 C441.27441,127.770746 440.823227,127.069885 440.834461,125.095028 C440.908696,110.466456 440.874854,95.8378849 440.874854,81.2082217 L440.874854,81.2082217 Z M464.099348,64.9934328 C464.099348,68.2641194 464.162666,71.5358977 464.070965,74.8044009 C464.027297,76.3425842 464.527289,76.8927932 466.092764,76.8371173 C469.178956,76.7279488 472.27934,76.9320938 475.358982,76.7519659 C484.943971,76.1908401 488.694999,71.8743198 487.829293,62.5928188 C487.476731,58.3853441 484.417761,54.9015305 480.291212,54.0078124 C475.354615,52.7905842 470.343783,53.6049808 465.373344,53.3560768 C463.960704,53.2851173 464.08734,54.2468913 464.091707,55.1813731 C464.10699,58.4520597 464.097165,61.7227463 464.099348,64.9934328 L464.099348,64.9934328 Z" fill="#1D60E6"></path>
    </g>
</svg>

<svg preserveAspectRatio="xMidYMid" viewBox="0 0 512 164" xmlns="http://www.w3.org/2000/svg">
  <path fill="#1D5FE6" d="M81.778 0c45.342.357 81.67 35.451 81.826 82.635.142 43.251-35.188 81.9-83.882 80.952C35.305 162.72-.974 126.542.02 79.302.897 37.58 34.937.432 81.778 0ZM64.55 94.173c2.909 0 5.818.007 8.726-.003 1.391-.005 2.262.31 1.938 2.053-.713 3.834-1.297 7.691-1.924 11.54-1.18 7.253-2.357 14.508-3.529 21.763-.112.691-.474 1.43.417 1.907 1.516.811 5.663-.221 6.52-1.652a115014.49 115014.49 0 0 0 32.59-54.422c2.255-3.774 1.072-5.814-3.353-5.847-5.09-.036-10.182-.036-15.273 0-1.58.009-2.655-.2-2.274-2.269 1.136-6.153 2.173-12.325 3.213-18.496.814-4.831 1.593-9.668 2.339-14.51.111-.723.55-1.617-.626-2.047a6.161 6.161 0 0 0-6.733 2.338 51546.466 51546.466 0 0 0-25.063 41.784c-2.52 4.203-5.115 8.362-7.515 12.633-1.8 3.199-.618 5.18 2.912 5.218 2.545.028 5.09.006 7.636.011Z"/>
  <path fill="#1D60E6" d="M374.141 98.005c5.112-13.325 10.048-26.168 14.962-39.017 2.781-7.275 5.559-14.552 8.258-21.855a2.952 2.952 0 0 1 3.265-2.154c7.638.065 15.278.085 22.916-.011 2.177-.026 2.755.775 2.751 2.875-.058 29.091-.057 58.183.002 87.274.005 2.072-.646 2.63-2.653 2.59-5.91-.12-11.825-.155-17.732.012-2.395.068-3.105-.62-3.09-3.044.11-15.908.07-31.817.073-47.727a4.59 4.59 0 0 0-.573-2.458c-1.681 4.806-3.376 9.607-5.042 14.418-4.176 12.06-8.391 24.11-12.462 36.208-.709 2.102-1.763 2.679-3.889 2.602-4.722-.171-9.467-.246-14.18.024-2.555.147-3.453-.95-4.179-3.076-4.825-14.129-9.733-28.231-14.622-42.339-.905-2.612-1.838-5.214-2.794-7.918-.963.863-.67 1.822-.67 2.686.001 15.909-.023 31.818.083 47.726.016 2.257-.594 2.958-2.887 2.897-5.998-.158-12.003-.104-18.004-.02-1.687.025-2.422-.333-2.418-2.218.048-29.272.05-58.545.002-87.818-.003-2.056.801-2.694 2.744-2.68 7.639.059 15.279.07 22.916-.01a3.144 3.144 0 0 1 3.405 2.372c7.473 19.34 14.984 38.665 22.533 57.974.293.75.694 1.458 1.285 2.688v-.001Zm-107.83-62.999c3.544 0 7.094.103 10.632-.04a3.065 3.065 0 0 1 3.384 2.408 18140.335 18140.335 0 0 0 17.189 46.888c4.974 13.5 10 26.982 14.984 40.48 1.074 2.903 1.038 2.92-2.078 2.922-6.362.003-12.73-.098-19.088.058-2.032.049-2.84-.68-3.405-2.504-1.256-4.062-2.812-8.031-4.061-12.095a2.904 2.904 0 0 0-3.308-2.384c-9.726.079-19.453.078-29.18-.003a2.773 2.773 0 0 0-3.095 2.29c-1.347 4.225-2.857 8.4-4.24 12.615-.438 1.328-.978 2.09-2.619 2.066a690.814 690.814 0 0 0-20.18-.01c-2.122.026-2.175-.694-1.528-2.427 5.153-13.82 10.231-27.667 15.33-41.507 5.723-15.541 11.471-31.074 17.128-46.638a2.84 2.84 0 0 1 3.226-2.147c3.634.091 7.272.028 10.908.028Zm-.193 58.025c2.907 0 5.817-.062 8.723.024 1.614.048 2.159-.356 1.577-2.03-3.171-9.136-6.28-18.293-9.42-27.44-.186-.54.035-1.464-.897-1.402-.581.04-.701.707-.885 1.24a6947.323 6947.323 0 0 1-9.53 27.706c-.52 1.5-.083 1.957 1.439 1.922 2.996-.069 5.995-.02 8.993-.02Zm174.757-11.823c0-14.538.05-29.077-.052-43.615-.016-2.359.596-3.15 3.037-3.108 12.99.219 25.996-.356 38.977.357 14.915.819 27.026 9.78 28.552 26.208 1.02 10.985-1.632 20.323-10.423 27.388-5.888 4.73-12.942 6.387-20.274 6.845-4.618.289-9.27.178-13.902.055-2.036-.055-2.794.345-2.755 2.63.156 8.994.008 17.992.106 26.986.023 2.118-.565 2.818-2.759 2.762-5.995-.15-11.992-.15-17.993.002-2.115.053-2.566-.648-2.555-2.623.075-14.629.04-29.257.04-43.887Zm23.224-16.215c0 3.271.064 6.543-.028 9.811-.044 1.539.456 2.089 2.022 2.033 3.086-.11 6.186.095 9.266-.085 9.585-.561 13.336-4.878 12.47-14.16a9.605 9.605 0 0 0-7.538-8.584c-4.936-1.217-9.947-.403-14.918-.652-1.412-.07-1.286.89-1.281 1.825.015 3.271.005 6.542.007 9.812Z"/>
</svg>
